!!!COM: Palestrina, Giovanni Perluigi da
!!!OPR: Missa In semidupl. maj. (II)
!!!OMD: Gloria
!!!OTL: Quoniam
**kern	**kern	**kern	**kern	**kern
*Ibass	*Itenor	*Itenor	*Icalto	*Icant
!Bassus	!Tenor 2	!Tenor 1	!Altus	!Cantus
*clefF4	*clefGv2	*clefGv2	*clefG2	*clefG2
*k[b-]	*k[b-]	*k[b-]	*k[b-]	*k[b-]
*F:ion	*F:ion	*F:ion	*F:ion	*F:ion
*M4/2	*M4/2	*M4/2	*M4/2	*M4/2
=82	=82	=82	=82	=82
0r	0r	0r	1r	1f
.	.	.	1c	2g
.	.	.	.	2a
=83	=83	=83	=83	=83
0r	0r	0r	2d	2f
.	.	.	2e	2.cc
.	.	.	2c	.
.	.	.	.	4b-
.	.	.	[2f	4a
.	.	.	.	4g
=84	=84	=84	=84	=84
0r	0r	1r	2f]	2a
.	.	.	2e	2g
.	.	[1F	2d	2.f
.	.	.	[2c	.
.	.	.	.	4e
=85	=85	=85	=85	=85
1r	0r	2F]	2c]	2.d
.	.	2G	2B-	.
.	.	.	.	4e
[1FF	.	2A	2.c	4f
.	.	.	.	4g
.	.	2F	.	[2a
.	.	.	4B-	.
=86	=86	=86	=86	=86
2FF]	0r	2c	2A	2a]
2GG	.	2B-	2d	2.g
2AA	.	1A	1c	.
.	.	.	.	4f
2FF	.	.	.	[2f
=87	=87	=87	=87	=87
2.C	2r	1G	2r	2f]
.	1C	.	1c	4e
4BB-	.	.	.	4d
2AA	.	2r	.	4e
.	.	.	.	4f
2GG	2D	[2G	2B-	[2g
=88	=88	=88	=88	=88
1C	2E	2G]	2c	4g]
.	.	.	.	4f
.	2C	2A	2c	2e
1BB-	1F	2B-	4d	1d
.	.	.	4c	.
.	.	[2d	4B-	.
.	.	.	4A	.
=89	=89	=89	=89	=89
1C	1E	4d]	2G	2.e
.	.	4c	.	.
.	.	1c	2G	.
.	.	.	.	4f
1GG	1D	.	1G	1g
.	.	2B	.	.
=90	=90	=90	=90	=90
[0C	[0C	[0c	[0G	[0e
=91	=91	=91	=91	=91
0C]	0C]	0c]	0G]	0e]
*-	*-	*-	*-	*-
!!!CDT: 1525/^1526/-1594/2/2
!!!OCY: Italia
!!!AGN: Mass (Paraphrase)
!!!AST: renaissance, vocal
!!!ASW: Gregorian Mass
!!!PWK: Masses, Book Mantuan II
!!!RNB: Cadence finals: C
!!!YOR: Le Opere Complete, v. 19, p. 87
!!!YOO: Rome, Italy: Fratelli Scalera
!!!END: 1992//
!!!EED: John Miller
!!!YEC: Copyright 2000, John Miller
!!!YEN: United States of America
!!!YEM: Rights to all derivative electronic formats reserved.
!!!YEM: Refer to licensing agreement for further details.
!!!YEM: This file must be accompanied by the licensing agreement.
!!!YEM: A copy of the licensing agreement may be found at http://www.music-cog.ohio-state.edu/HumdrumDatabases/Palestrina/license.txt
!!!EMD: converted to Humdrum by Bret Aarden
